X:1
T:Title
%%score { 1 | 2 }
L:1/8
M:6/8
K:Eb
V:1 treble nm="Grand Piano"
V:2 bass 
V:1
 z3 z[Q:1/4=100] E>F | G3 BEF | G [EGB]2- [EGB][EAc]>[EAc] | [EGB]3 [B,EG][B,FB][B,EG] | %4
[M:2/4] [B,DF]4 |[M:1/4] E>F |[M:3/4] G3 B EF | G [FGB]3 [EAc]>[EAc] | [EGB]3 [B,EG] [A,DF][B,DG] | %9
[M:2/4] E4 |[M:1/4] B>B |[M:3/4] c3 e c[GB] | [EG] [GB]3 B>B | c3 e [Ec][EB] |[M:2/4] [DB]4 | %15
[M:1/4] E>F |[M:3/4] G3 B EF | G [EGB]3 [EAc]>[EAc] | [EGB]3 [B,EG] [A,DF][B,DG] |[M:2/4] [G,E]4 |] %20
V:2
 z3 z [E,G,]>[E,A,E] | [E,B,E]3 [E,G,E][G,B,][F,B,D] | [E,B,E] E,2- E,A,,>C, | E,3 E,D,E, | %4
[M:2/4] B,,4 |[M:1/4] G,>[E,A,E] |[M:3/4] [E,B,E]3 [E,G,E] [G,B,][F,B,D] | [E,B,E] E,3 A,,>A,, | %8
 B,,3 B,, B,,B,, |[M:2/4] [E,G,]4 |[M:1/4] [E,G,E]>[E,G,E] | %11
[M:3/4][K:treble] [A,E]3 [A,CE] [A,EA][K:bass][E,E] | [E,B,] [E,B,]3 [E,G,E]>[G,E] | %13
 [A,E]3 [A,,CE] [A,,A,][E,G,] |[M:2/4] [B,,F,]4 |[M:1/4] [E,G,]>[E,A,E] | %16
[M:3/4] [E,B,E]3 [E,G,E] [G,B,][F,B,D] | [E,B,E] E,3 A,,>A,, | B,,3 B,, B,,B,, |[M:2/4] E,4 |] %20

